src/assets/EditBtn.svg

<svg width="20" height="20" viewBox="0 0 20 20" fill="none" xmlns="http://www.w3.org/2000/svg">
<path d="M14.1616 3.6334L16.3668 5.83861M15.5793 1.69069L9.6137 7.65631C9.30546 7.96412 9.09524 8.3563 9.00954 8.7834L8.4585 11.5417L11.2168 10.9896C11.6439 10.9042 12.0356 10.6949 12.3439 10.3865L18.3095 4.4209C18.4888 4.24163 18.631 4.02881 18.728 3.79458C18.825 3.56036 18.875 3.30932 18.875 3.05579C18.875 2.80227 18.825 2.55123 18.728 2.317C18.631 2.08278 18.4888 1.86996 18.3095 1.69069C18.1303 1.51142 17.9174 1.36922 17.6832 1.2722C17.449 1.17518 17.198 1.12524 16.9444 1.12524C16.6909 1.12524 16.4399 1.17518 16.2056 1.2722C15.9714 1.36922 15.7586 1.51142 15.5793 1.69069Z" stroke="black" stroke-width="2.08333" stroke-linecap="round" stroke-linejoin="round"/>
<path d="M16.7917 13.6252V16.7502C16.7917 17.3027 16.5723 17.8326 16.1816 18.2233C15.7909 18.614 15.2609 18.8335 14.7084 18.8335H3.25008C2.69755 18.8335 2.16764 18.614 1.77694 18.2233C1.38624 17.8326 1.16675 17.3027 1.16675 16.7502V5.29183C1.16675 4.73929 1.38624 4.20939 1.77694 3.81869C2.16764 3.42799 2.69755 3.2085 3.25008 3.2085H6.37508" stroke="black" stroke-width="2.08333" stroke-linecap="round" stroke-linejoin="round"/>
</svg>

<svg xmlns="http://www.w3.org/2000/svg" width="20" height="20" fill="none"><path stroke="#000" stroke-linecap="round" stroke-linejoin="round" stroke-width="2.083" d="m14.162 3.633 2.205 2.206m-.788-4.148L9.614 7.656c-.309.308-.519.7-.604 1.127l-.551 2.759 2.758-.552a2.2 2.2 0 0 0 1.127-.604l5.966-5.965a1.93 1.93 0 1 0-2.73-2.73"/><path stroke="#000" stroke-linecap="round" stroke-linejoin="round" stroke-width="2.083" d="M16.792 13.625v3.125a2.083 2.083 0 0 1-2.084 2.084H3.25a2.083 2.083 0 0 1-2.083-2.084V5.292A2.083 2.083 0 0 1 3.25 3.209h3.125"/></svg>
